icons/plexis/48/telegram.svg

<svg viewBox="0 0 48 48" xmlns="http://www.w3.org/2000/svg" xmlns:xlink="http://www.w3.org/1999/xlink">
  <linearGradient id="a" gradientTransform="matrix(0 -1 1 0 -.0000015 47.999998)" gradientUnits="userSpaceOnUse" x1="1" x2="47">
    <stop offset="0" stop-color="#3db0e3"/>
    <stop offset="1" stop-color="#50b8e6"/>
  </linearGradient>
  <linearGradient id="b" gradientUnits="userSpaceOnUse" x1="7.66259475" x2="9.06833425" y1="6.69477" y2="8.9439532">
    <stop offset="0" stop-color="#eff7fc"/>
    <stop offset="1" stop-color="#fff"/>
  </linearGradient>
  <path d="m47 24c0 22.703-.297 23-23 23-22.703 0-23-.297-23-23 0-22.703.297-23 23-23 22.703 0 23 .297 23 23z" fill="url(#a)"/>
  <path d="m35.01 14.215c-.237-.027-.497.016-.76.135l-23.03 8.885c-1.573.631-1.563 1.505-.287 1.898l5.91 1.846.004-.002 2.025 6.67c.269.737.136 1.031.912 1.031.599 0 .86-.272 1.193-.598.205-.201 1.515-1.474 2.865-2.787l5.982 4.424c1.098.606 1.892.293 2.168-1.021l3.924-18.48c.3-1.206-.196-1.92-.906-2z" opacity=".1" transform="matrix(1 0 0 1 -.00000006 -.01382708)"/>
  <g transform="matrix(3.543307 0 0 3.543307 -1.00023767 -1.0135719)">
    <path d="m5.582 9.787c-.219 0-.181-.083-.257-.291l-.643-2.116 3.981-2.487.465.122-.386 1.058z" fill="#c8daea"/>
    <path d="m5.582 9.787c.169 0 .243-.077.337-.169.145-.142 2.024-1.968 2.024-1.968l-1.151-.279-1.068.675-.142 1.684z" fill="#a7c2d1"/>
    <path d="m5.697 8.07l2.719 2.01c.31.171.534.083.612-.288l1.107-5.216c.113-.454-.173-.66-.47-.526l-6.5 2.507c-.444.178-.441.425-.081.536l1.668.521 3.861-2.436c.182-.111.35-.051.212.071z" fill="url(#b)"/>
  </g>
</svg>

<svg xmlns="http://www.w3.org/2000/svg" viewBox="0 0 48 48">
 <defs>
  <linearGradient id="linearGradient3764" x1="1" x2="47" gradientUnits="userSpaceOnUse" gradientTransform="matrix(0,-1,1,0,-1.5e-6,47.999998)">
   <stop style="stop-color:#3db0e3;stop-opacity:1"/>
   <stop offset="1" style="stop-color:#50b8e6;stop-opacity:1"/>
  </linearGradient>
  <linearGradient y2="160" x2="160" y1="120" x1="135" gradientTransform="matrix(0.05622958,0,0,0.05622958,0.07160145,-0.0527796)" gradientUnits="userSpaceOnUse" id="linearGradient3102-2">
   <stop style="stop-color:#eff7fc"/>
   <stop offset="1" style="stop-color:#fff"/>
  </linearGradient>
 </defs>
 <g>
  
  
  
 </g>
 <g>
  <path d="m 47,24 C 47,46.703 46.703,47 24,47 1.297,47 1,46.703 1,24 1,1.297 1.297,1 24,1 46.703,1 47,1.297 47,24 z" style="fill:url(#linearGradient3764);fill-opacity:1"/>
 </g>
 <g>
  
 </g>
 <g transform="matrix(3.543307,0,0,3.543307,-5.7124686e-8,-0.01382708)" style="fill:#000;opacity:0.1;fill-opacity:1">
  <path d="m 35.01 14.215 c -0.237 -0.027 -0.497 0.016 -0.76 0.135 l -23.03 8.885 c -1.573 0.631 -1.563 1.505 -0.287 1.898 l 5.91 1.846 0.004 -0.002 2.025 6.67 c 0.269 0.737 0.136 1.031 0.912 1.031 0.599 0 0.86 -0.272 1.193 -0.598 0.205 -0.201 1.515 -1.474 2.865 -2.787 l 5.982 4.424 c 1.098 0.606 1.892 0.293 2.168 -1.021 l 3.924 -18.48 c 0.3 -1.206 -0.196 -1.92 -0.906 -2 z" transform="scale(0.28222223,0.28222223)"/>
 </g>
 <g transform="matrix(3.543307,0,0,3.543307,17,-1.0135719)">
  <g transform="translate(-5.0800672,0)">
   <path d="M 5.582,9.787 C 5.363,9.787 5.401,9.704 5.325,9.496 L 4.682,7.38 8.663,4.893 9.128,5.015 8.742,6.073 Z" style="fill:#c8daea"/>
   <path d="M 5.582,9.787 C 5.751,9.787 5.825,9.71 5.919,9.618 6.064,9.476 7.943,7.65 7.943,7.65 L 6.792,7.371 5.724,8.046 5.582,9.73 Z" style="fill:#a7c2d1"/>
   <path d="m 5.697,8.07 2.719,2.01 c 0.31,0.171 0.534,0.083 0.612,-0.288 L 10.135,4.576 C 10.248,4.122 9.962,3.916 9.665,4.05 l -6.5,2.507 C 2.721,6.735 2.724,6.982 3.084,7.093 L 4.752,7.614 8.613,5.178 C 8.795,5.067 8.963,5.127 8.825,5.249 Z" style="fill:url(#linearGradient3102-2)"/>
  </g>
 </g>
</svg>
